; generated by SuperSlicer 2.4 on 2022-10-02 at 17:37:05 UTC


;
;

;
;
; 

; external perimeters extrusion width = 0.40mm
; perimeters extrusion width = 0.48mm
; infill extrusion width = 0.72mm
; solid infill extrusion width = 0.56mm
; top infill extrusion width = 0.40mm
; support material extrusion width = 0.42mm
; first layer extrusion width = 0.48mm

; object:{"name":"velo fermeture","id":"velo fermeture.stl id:0 copy 0","object_center":[175.000000,175.000000,0.000000],"boundingbox_center":[175.000000,175.000000,5.000000],"boundingbox_size":[84.280857,84.280857,10.000000]}
; plater:{"center":[175.000000,175.000000,0.000000],"boundingbox_center":[175.000000,175.000000,5.000000],"boundingbox_size":[84.280857,84.280857,10.000000]}

M73 P0 R40
;TYPE:Custom
; custom gcode: start_gcode
; M190 S0
; M109 S0 ; uncomment to remove set&wait temp gcode added automatically after this start gcode
print_start EXTRUDER=245 BED=110 CHAMBER=50
; custom gcode end: start_gcode
M107
G21 ; set units to millimeters
G90 ; use absolute coordinates
M83 ; use relative distances for extrusion
; custom gcode: start_filament_gcode
; Filament gcode
; custom gcode end: start_filament_gcode
;_TOOLCHANGE 0
M104 S245 ; set temperature
M109 S245 ; set temperature and wait for it to be reached
M190 S110 ; set bed temperature and wait for it to be reached
;LAYER_CHANGE
;Z:0.2
;HEIGHT:0.2
G1 Z0.2 F27000
G92 E0
M73 P0 R39
G1 E-0.5 F1800
M204 S2000
G1 X156.121 Y156.245 F27000
G1 E0.5 F1800
;TYPE:Skirt
;WIDTH:0.52
G1 X132.751 Y179.596 E1.21093
G1 X131.798 Y180.648 E0.05202
G1 X130.795 Y181.98 E0.06115
G1 X129.926 Y183.405 E0.06115
G1 X129.202 Y184.908 E0.06115
G1 X128.628 Y186.474 E0.06115
G1 X128.162 Y188.335 E0.07032
G1 X127.887 Y190.569 E0.08252
G1 X127.887 Y192.488 E0.07032
G1 X128.162 Y194.722 E0.08252
G1 X128.628 Y196.583 E0.07031
G1 X129.439 Y198.684 E0.08253
G1 X130.343 Y200.375 E0.07031
G1 X131.639 Y202.216 E0.08252
G1 X132.751 Y203.461 E0.06119
G1 X146.962 Y217.652 E0.73613
G1 X147.784 Y218.361 E0.03976
G1 X149.131 Y219.345 E0.06115
G1 X150.348 Y220.074 E0.05198
G1 X151.85 Y220.798 E0.06115
G1 X154.219 Y221.6 E0.09168
G1 X156.101 Y221.974 E0.07031
G1 X158.597 Y222.14 E0.09168
G1 X160.842 Y221.974 E0.08252
G1 X163.286 Y221.444 E0.09168
G1 X165.092 Y220.798 E0.07032
M73 P1 R39
G1 X167.318 Y219.657 E0.09168
G1 X169.159 Y218.361 E0.08253
G1 X170.494 Y217.161 E0.06578
G1 X217.249 Y170.404 E2.4237
G1 X218.202 Y169.352 E0.05203
G1 X219.205 Y168.02 E0.06115
G1 X220.074 Y166.595 E0.06115
G1 X220.798 Y165.092 E0.06115
G1 X221.444 Y163.286 E0.07032
G1 X221.974 Y160.842 E0.09168
G1 X222.14 Y158.597 E0.08252
G1 X221.974 Y156.101 E0.09168
G1 X221.6 Y154.219 E0.07031
G1 X220.894 Y152.082 E0.08253
G1 X220.074 Y150.348 E0.07031
G1 X218.72 Y148.244 E0.09168
G1 X217.161 Y146.449 E0.08715
G1 X203.551 Y132.839 E0.70551
G1 X201.756 Y131.28 E0.08715
G1 X199.652 Y129.926 E0.09168
G1 X197.373 Y128.896 E0.09168
G1 X196.343 Y128.556 E0.03976
G1 X194.722 Y128.162 E0.06115
G1 X192.238 Y127.874 E0.09168
G1 X190.569 Y127.887 E0.06115
G1 X188.911 Y128.062 E0.06115
G1 X187.277 Y128.4 E0.06115
G1 X185.684 Y128.896 E0.06115
G1 X184.147 Y129.546 E0.06115
G1 X182.682 Y130.343 E0.06115
G1 X181.503 Y131.131 E0.05199
G1 X180.205 Y132.18 E0.06115
G1 X156.121 Y156.245 E1.24797
G1 X156.454 Y156.578 F27000
G1 F1800
G1 X133.097 Y179.925 E1.21049
G1 X132.16 Y180.959 E0.05117
G1 X131.185 Y182.255 E0.05943
G1 X130.342 Y183.64 E0.05944
G1 X129.638 Y185.101 E0.05943
G1 X129.016 Y186.841 E0.06774
G1 X128.533 Y188.992 E0.08081
G1 X128.351 Y190.831 E0.06774
G1 X128.406 Y193.035 E0.08081
G1 X128.677 Y194.863 E0.06774
G1 X129.265 Y196.988 E0.08081
G1 X129.972 Y198.695 E0.06774
G1 X131.059 Y200.614 E0.08081
G1 X132.016 Y201.923 E0.05943
G1 X133.097 Y203.132 E0.05948
G1 X147.291 Y217.307 E0.73528
G1 X149.386 Y218.941 E0.0974
G1 X150.583 Y219.658 E0.05112
G1 X152.044 Y220.362 E0.05943
G1 X154.347 Y221.14 E0.08911
G1 X156.159 Y221.501 E0.06774
G1 X158.358 Y221.663 E0.08081
G1 X160.783 Y221.501 E0.08911
G1 X163.159 Y220.984 E0.08911
G1 X164.899 Y220.362 E0.06774
G1 X167.063 Y219.254 E0.0891
G1 X168.865 Y217.984 E0.08081
G1 X170.156 Y216.824 E0.06363
G1 X216.903 Y170.075 E2.42327
G1 X217.841 Y169.041 E0.05117
G1 X218.815 Y167.745 E0.05943
G1 X219.658 Y166.36 E0.05944
G1 X220.362 Y164.899 E0.05943
G1 X221.062 Y162.878 E0.07842
G1 X221.501 Y160.783 E0.07842
G1 X221.663 Y158.585 E0.08081
G1 X221.501 Y156.159 E0.08911
G1 X221.14 Y154.347 E0.06774
G1 X220.449 Y152.253 E0.08081
G1 X219.658 Y150.583 E0.06774
G1 X218.344 Y148.538 E0.08911
G1 X216.824 Y146.786 E0.085
G1 X203.214 Y133.176 E0.70551
G1 X201.462 Y131.656 E0.085
G1 X199.417 Y130.342 E0.08911
G1 X197.202 Y129.341 E0.08911
G1 X194.641 Y128.632 E0.0974
G1 X192.226 Y128.351 E0.08911
G1 X190.605 Y128.363 E0.05944
G1 X188.992 Y128.533 E0.05943
G1 X187.404 Y128.86 E0.05944
G1 X185.856 Y129.341 E0.05944
G1 X184.362 Y129.972 E0.05943
G1 X182.937 Y130.746 E0.05943
G1 X181.595 Y131.656 E0.05944
G1 X180.349 Y132.693 E0.05943
G1 X156.454 Y156.578 E1.23838
G1 X156.791 Y156.915 F27000
G1 F1800
G1 X133.442 Y180.254 E1.21006
G1 X132.521 Y181.271 E0.05031
G1 X131.575 Y182.53 E0.05772
G1 X130.757 Y183.875 E0.05772
G1 X130.074 Y185.294 E0.05772
G1 X129.475 Y186.968 E0.06517
G1 X129.003 Y189.074 E0.07909
G1 X128.828 Y190.843 E0.06517
G1 X128.881 Y193 E0.07909
G1 X129.142 Y194.759 E0.06517
G1 X129.718 Y196.838 E0.07909
G1 X130.398 Y198.481 E0.06517
G1 X131.462 Y200.358 E0.07909
G1 X132.392 Y201.629 E0.05772
G1 X133.442 Y202.803 E0.05776
G1 X147.62 Y216.961 E0.73442
G1 X149.642 Y218.538 E0.09397
G1 X150.997 Y219.339 E0.05772
G1 X152.237 Y219.926 E0.05026
G1 X154.474 Y220.68 E0.08654
G1 X156.218 Y221.027 E0.06517
G1 X158.37 Y221.186 E0.07909
G1 X160.725 Y221.027 E0.08653
G1 X163.032 Y220.525 E0.08653
G1 X164.706 Y219.926 E0.06517
G1 X166.808 Y218.851 E0.08653
G1 X168.572 Y217.608 E0.07909
G1 X169.819 Y216.486 E0.06149
G1 X216.558 Y169.746 E2.42284
G1 X217.479 Y168.729 E0.05031
G1 X218.425 Y167.47 E0.05772
G1 X219.243 Y166.125 E0.05772
G1 X219.926 Y164.706 E0.05772
G1 X220.603 Y162.75 E0.07585
G1 X221.027 Y160.725 E0.07585
G1 X221.186 Y158.573 E0.07909
G1 X221.027 Y156.218 E0.08654
G1 X220.68 Y154.474 E0.06517
G1 X220.004 Y152.425 E0.07909
G1 X219.243 Y150.818 E0.06517
G1 X217.968 Y148.831 E0.08653
G1 X216.486 Y147.124 E0.08286
G1 X202.876 Y133.514 E0.70551
G1 X201.169 Y132.032 E0.08286
G1 X199.182 Y130.757 E0.08653
G1 X197.03 Y129.786 E0.08653
G1 X194.759 Y129.142 E0.08653
G1 X192.214 Y128.828 E0.09397
G1 X190.64 Y128.838 E0.05772
G1 X189.074 Y129.003 E0.05772
G1 X187.531 Y129.32 E0.05772
G1 X186.027 Y129.786 E0.05772
G1 X184.576 Y130.398 E0.05772
G1 X183.192 Y131.149 E0.05772
G1 X181.889 Y132.032 E0.05772
G1 X180.678 Y133.039 E0.05772
G1 X156.791 Y156.915 E1.23795
M73 P2 R39
G1 X157.131 Y157.256 F27000
G1 F1800
G1 X133.788 Y180.583 E1.20963
G1 X132.882 Y181.582 E0.04945
G1 X131.965 Y182.804 E0.056
G1 X130.747 Y184.954 E0.09055
G1 X129.987 Y186.923 E0.07738
G1 X129.573 Y188.58 E0.0626
G1 X129.314 Y190.675 E0.07738
G1 X129.314 Y192.383 E0.0626
G1 X129.573 Y194.478 E0.07738
G1 X129.987 Y196.134 E0.0626
G1 X130.747 Y198.104 E0.07738
G1 X131.552 Y199.61 E0.0626
G1 X132.768 Y201.336 E0.07738
G1 X133.788 Y202.474 E0.05605
G1 X147.526 Y216.212 E0.71211
G1 X148.525 Y217.118 E0.04945
G1 X149.747 Y218.035 E0.056
G1 X151.896 Y219.253 E0.09054
G1 X154.038 Y220.065 E0.08396
G1 X156.098 Y220.527 E0.07738
G1 X158.381 Y220.709 E0.08396
G1 X160.087 Y220.625 E0.0626
G1 X162.342 Y220.221 E0.08396
G1 X164.512 Y219.489 E0.08396
G1 X166.552 Y218.448 E0.08396
G1 X168.278 Y217.232 E0.07738
G1 X169.482 Y216.149 E0.05934
G1 X216.149 Y169.482 E2.41911
G1 X217.118 Y168.418 E0.05275
G1 X218.035 Y167.196 E0.056
G1 X219.253 Y165.046 E0.09055
G1 X220.065 Y162.905 E0.08396
G1 X220.527 Y160.845 E0.07738
G1 X220.709 Y158.561 E0.08396
G1 X220.625 Y156.856 E0.0626
G1 X220.264 Y154.776 E0.07738
G1 X219.558 Y152.597 E0.08396
G1 X218.828 Y151.053 E0.0626
G1 X217.592 Y149.125 E0.08396
G1 X216.149 Y147.461 E0.08071
G1 X202.539 Y133.851 E0.70551
G1 X201.336 Y132.768 E0.05934
G1 X200.103 Y131.865 E0.056
G1 X198.947 Y131.172 E0.04941
G1 X196.858 Y130.231 E0.08396
G1 X194.654 Y129.608 E0.08396
G1 X192.203 Y129.305 E0.09055
G1 X190.675 Y129.314 E0.056
G1 X189.155 Y129.473 E0.056
G1 X187.658 Y129.779 E0.056
G1 X186.368 Y130.171 E0.04941
G1 X184.954 Y130.747 E0.056
G1 X183.602 Y131.46 E0.056
G1 X182.327 Y132.301 E0.056
G1 X181.14 Y133.263 E0.056
G1 X157.131 Y157.256 E1.24413
G1 X157.465 Y157.59 F27000
G1 F1800
G1 X134.134 Y180.912 E1.20919
G1 X133.243 Y181.894 E0.04859
G1 X132.355 Y183.079 E0.05429
G1 X131.183 Y185.147 E0.08712
G1 X130.44 Y187.073 E0.07566
G1 X130.043 Y188.661 E0.06002
G1 X129.79 Y190.71 E0.07566
G1 X129.79 Y192.347 E0.06002
G1 X130.043 Y194.396 E0.07566
G1 X130.44 Y195.984 E0.06002
G1 X131.183 Y197.91 E0.07566
G1 X131.955 Y199.355 E0.06002
G1 X133.144 Y201.042 E0.07566
G1 X134.134 Y202.146 E0.05433
G1 X147.854 Y215.866 E0.71126
G1 X148.837 Y216.757 E0.04859
G1 X150.022 Y217.645 E0.05429
G1 X152.09 Y218.817 E0.08712
G1 X154.016 Y219.56 E0.07566
G1 X156.179 Y220.057 E0.08139
G1 X158.393 Y220.232 E0.08139
G1 X160.029 Y220.152 E0.06002
G1 X162.214 Y219.761 E0.08139
G1 X164.319 Y219.053 E0.08139
G1 X166.297 Y218.045 E0.08139
G1 X167.985 Y216.856 E0.07566
G1 X169.144 Y215.812 E0.0572
G1 X215.812 Y169.144 E2.41911
G1 X216.757 Y168.106 E0.05146
G1 X217.645 Y166.921 E0.05429
G1 X218.817 Y164.853 E0.08712
G1 X219.605 Y162.777 E0.08139
G1 X220.057 Y160.763 E0.07566
G1 X220.232 Y158.55 E0.08139
G1 X220.152 Y156.914 E0.06002
G1 X219.761 Y154.728 E0.08139
G1 X219.113 Y152.768 E0.07566
G1 X218.125 Y150.78 E0.08139
G1 X217.216 Y149.418 E0.06002
G1 X215.812 Y147.798 E0.07857
G1 X202.202 Y134.188 E0.70551
G1 X201.042 Y133.144 E0.0572
G1 X199.848 Y132.268 E0.05429
G1 X198.712 Y131.587 E0.04855
G1 X196.687 Y130.676 E0.08139
G1 X194.396 Y130.043 E0.08712
G1 X192.191 Y129.782 E0.08139
G1 X190.71 Y129.79 E0.05429
G1 X189.237 Y129.943 E0.05429
G1 X187.786 Y130.239 E0.05429
G1 X186.371 Y130.676 E0.05429
G1 X185.005 Y131.25 E0.05429
G1 X183.703 Y131.955 E0.05429
G1 X182.476 Y132.784 E0.05429
G1 X181.336 Y133.73 E0.05429
G1 X157.465 Y157.59 E1.23711
G1 X157.802 Y157.927 F27000
G1 F1800
G1 X134.526 Y181.193 E1.20632
G1 X133.604 Y182.206 E0.05018
G1 X132.745 Y183.354 E0.05257
G1 X131.619 Y185.34 E0.08369
G1 X130.893 Y187.222 E0.07394
G1 X130.513 Y188.743 E0.05745
G1 X130.266 Y190.745 E0.07394
G1 X130.266 Y192.312 E0.05745
G1 X130.513 Y194.314 E0.07394
G1 X130.893 Y195.835 E0.05745
G1 X131.619 Y197.717 E0.07394
G1 X132.358 Y199.099 E0.05745
G1 X133.52 Y200.749 E0.07394
G1 X134.479 Y201.817 E0.05262
G1 X148.183 Y215.521 E0.7104
G1 X149.148 Y216.396 E0.04774
G1 X150.296 Y217.255 E0.05257
G1 X152.283 Y218.381 E0.08369
G1 X154.165 Y219.107 E0.07394
G1 X156.261 Y219.587 E0.07882
G1 X158.405 Y219.755 E0.07882
G1 X159.97 Y219.678 E0.05745
G1 X162.087 Y219.301 E0.07882
G1 X164.126 Y218.617 E0.07882
G1 X166.042 Y217.642 E0.07882
G1 X167.691 Y216.48 E0.07395
G1 X168.807 Y215.474 E0.05506
G1 X215.474 Y168.807 E2.41911
M73 P2 R38
G1 X216.396 Y167.794 E0.05018
G1 X217.255 Y166.646 E0.05257
G1 X218.381 Y164.66 E0.08369
G1 X219.145 Y162.65 E0.07882
G1 X219.587 Y160.682 E0.07395
G1 X219.755 Y158.538 E0.07882
G1 X219.678 Y156.973 E0.05745
G1 X219.333 Y154.985 E0.07394
G1 X218.668 Y152.94 E0.07882
G1 X217.71 Y151.015 E0.07882
G1 X216.839 Y149.712 E0.05745
G1 X215.474 Y148.136 E0.07643
M73 P3 R38
G1 X201.864 Y134.526 E0.70551
G1 X200.749 Y133.52 E0.05505
G1 X199.593 Y132.671 E0.05257
G1 X198.477 Y132.002 E0.04769
G1 X196.515 Y131.122 E0.07882
G1 X194.445 Y130.539 E0.07882
G1 X192.179 Y130.259 E0.08369
G1 X190.745 Y130.266 E0.05257
G1 X189.318 Y130.413 E0.05257
G1 X187.913 Y130.699 E0.05257
G1 X186.542 Y131.122 E0.05257
G1 X185.22 Y131.676 E0.05257
G1 X183.958 Y132.358 E0.05257
G1 X182.769 Y133.161 E0.05257
G1 X181.665 Y134.075 E0.05257
G1 X157.802 Y157.927 E1.23668
G1 X158.139 Y158.264 F27000
G1 F1800
G1 X134.863 Y181.53 E1.20631
G1 X133.966 Y182.517 E0.04889
G1 X133.135 Y183.628 E0.05086
G1 X132.056 Y185.534 E0.08026
G1 X131.346 Y187.372 E0.07223
G1 X130.983 Y188.824 E0.05488
G1 X130.741 Y190.78 E0.07223
G1 X130.741 Y192.277 E0.05488
G1 X130.983 Y194.233 E0.07223
G1 X131.346 Y195.685 E0.05488
G1 X132.056 Y197.524 E0.07223
G1 X132.761 Y198.844 E0.05488
G1 X133.896 Y200.455 E0.07223
G1 X134.825 Y201.488 E0.0509
G1 X148.512 Y215.175 E0.70954
G1 X149.46 Y216.034 E0.04688
G1 X150.571 Y216.865 E0.05085
G1 X152.476 Y217.944 E0.08026
G1 X154.42 Y218.685 E0.07625
G1 X156.343 Y219.117 E0.07223
G1 X158.416 Y219.278 E0.07624
G1 X159.912 Y219.205 E0.05488
G1 X161.96 Y218.841 E0.07624
G1 X163.932 Y218.181 E0.07625
G1 X165.787 Y217.239 E0.07624
G1 X167.398 Y216.104 E0.07223
G1 X168.47 Y215.137 E0.05291
G1 X215.137 Y168.47 E2.41911
G1 X216.034 Y167.483 E0.04889
G1 X216.865 Y166.372 E0.05086
G1 X217.944 Y164.466 E0.08026
G1 X218.654 Y162.628 E0.07223
G1 X219.117 Y160.6 E0.07625
G1 X219.278 Y158.526 E0.07624
G1 X219.205 Y157.031 E0.05488
G1 X218.868 Y155.089 E0.07223
G1 X218.223 Y153.112 E0.07625
G1 X217.295 Y151.25 E0.07624
G1 X216.463 Y150.005 E0.05488
G1 X215.137 Y148.473 E0.07428
G1 X201.527 Y134.863 E0.70551
G1 X200.455 Y133.896 E0.05291
G1 X199.429 Y133.135 E0.04683
G1 X198.242 Y132.417 E0.05086
G1 X196.343 Y131.567 E0.07624
G1 X194.341 Y131.004 E0.07624
G1 X192.167 Y130.736 E0.08026
G1 X190.78 Y130.741 E0.05086
G1 X189.4 Y130.883 E0.05085
G1 X188.04 Y131.159 E0.05086
G1 X186.714 Y131.567 E0.05086
G1 X185.434 Y132.103 E0.05086
G1 X184.213 Y132.761 E0.05086
G1 X183.063 Y133.537 E0.05086
G1 X181.994 Y134.421 E0.05086
G1 X158.139 Y158.264 E1.23626
G1 E-0.5
; printing object velo fermeture.stl id:0 copy 0
; acceleration to travel
M204 S7500
G1 X151.814 Y191.432 F27000
; decel to extrusion
M204 S2000
G1 X150.128 Y200.277
; end travel
G1 E0.5 F1800
;TYPE:Internal perimeter
;WIDTH:0.48
G1 X148.915 Y201.489 E0.05756
G1 X144.875 Y205.529 E0.19189
G1 X149.521 Y210.176 E0.22066
G1 X154.774 Y204.923 E0.24945
G1 X150.128 Y200.277 E0.22066
G1 X150.128 Y200.895 F27000
G1 F1800
G1 X149.224 Y201.798 E0.04289
G1 X145.493 Y205.529 E0.17721
G1 X149.521 Y209.558 E0.19131
G1 X154.156 Y204.923 E0.2201
G1 X150.128 Y200.895 E0.19131
G1 E-0.5
M204 S1000
G1 X149.521 Y208.939 F27000
G1 E0.5 F1800
;TYPE:External perimeter
G1 X153.538 Y204.923 E0.19074
G1 X150.128 Y201.513 E0.16195
G1 X149.534 Y202.107 E0.02821
G1 X146.111 Y205.529 E0.16253
G1 X149.521 Y208.939 E0.16195
;WIPE_START
M204 S3500
G1 X149.804 Y209.222 F27000
;WIPE_END
G1 E-0.5 F1800
; acceleration to travel
M204 S7500
G1 X146.072 Y198.173 F27000
; decel to extrusion
M204 S2000
G1 X145.077 Y195.226
; end travel
G1 E0.5 F1800
;TYPE:Internal perimeter
G1 X143.865 Y196.438 E0.05756
G1 X139.824 Y200.479 E0.19189
G1 X144.471 Y205.125 E0.22066
G1 X149.723 Y199.872 E0.24945
G1 X145.077 Y195.226 E0.22066
G1 X145.077 Y195.844 F27000
G1 F1800
G1 X144.174 Y196.747 E0.04289
G1 X140.442 Y200.479 E0.17721
G1 X144.471 Y204.507 E0.19131
G1 X149.105 Y199.872 E0.2201
G1 X145.077 Y195.844 E0.19131
G1 E-0.5
M204 S1000
G1 X144.471 Y203.889 F27000
G1 E0.5 F1800
;TYPE:External perimeter
G1 X148.487 Y199.872 E0.19074
G1 X145.077 Y196.462 E0.16195
G1 X144.483 Y197.056 E0.02821
G1 X141.061 Y200.479 E0.16253
G1 X144.471 Y203.889 E0.16195
;WIPE_START
M204 S3500
G1 X144.754 Y204.172 F27000
;WIPE_END
G1 E-0.5 F1800
; acceleration to travel
M204 S7500
G1 X188.51 Y153.12 F27000
; decel to extrusion
M204 S2000
G1 X200.178 Y139.507
; end travel
G1 E0.5 F1800
;TYPE:Internal perimeter
G1 X198.657 Y141.028 E0.07224
G1 X194.307 Y145.377 E0.20657
G1 X204.623 Y155.693 E0.48988
G1 X210.493 Y149.822 E0.27881
G1 X205.105 Y144.434 E0.25589
G1 X200.178 Y139.507 E0.23399
G1 E-0.5
; acceleration to travel
M204 S7500
G1 X204.166 Y143.982 F27000
; decel to extrusion
M204 S2000
G1 X205.229 Y145.175
; end travel
G1 E0.5 F1800
G1 X204.017 Y146.388 E0.05756
G1 X199.976 Y150.428 E0.19189
G1 X204.623 Y155.074 E0.22066
G1 X209.875 Y149.822 E0.24945
G1 X205.229 Y145.175 E0.22066
G1 X205.229 Y145.794 F27000
G1 F1800
G1 X204.326 Y146.697 E0.04289
